src/assets/svg/ic_app_table.svg

<svg xmlns="http://www.w3.org/2000/svg" width="16" height="16">
    <path d="M14 2H2a1 1 0 00-1 1v11a1 1 0 001 1h12a1 1 0 001-1V3a1 1 0 00-1-1zm0 12H2V5h12v9z"/>
    <path d="M6 13h7V6H3v7h3zm1-1v-1h2v1H7zm0-2V9h2v1H7zm5 2h-2v-1h2v1zm0-2h-2V9h2v1zm0-3v1h-2V7h2zM9 7v1H7V7h2zM4 7h2v1H4V7zm0 2h2v1H4V9zm0 2h2v1H4v-1z"/>
</svg>

<?xml version="1.0" encoding="utf-8"?>
<!-- Generator: Adobe Illustrator 16.0.4, SVG Export Plug-In . SVG Version: 6.00 Build 0)  -->
<!DOCTYPE svg PUBLIC "-//W3C//DTD SVG 1.1//EN" "http://www.w3.org/Graphics/SVG/1.1/DTD/svg11.dtd">
<svg version="1.1" id="artwork" xmlns="http://www.w3.org/2000/svg" xmlns:xlink="http://www.w3.org/1999/xlink" x="0px" y="0px"
	 width="16px" height="16px" viewBox="0 0 16 16" enable-background="new 0 0 16 16" xml:space="preserve">
<g>
	<path d="M14,2H2C1.447,2,1,2.447,1,3v11c0,0.553,0.447,1,1,1h12c0.553,0,1-0.447,1-1V3C15,2.447,14.553,2,14,2z
		 M14,14H2V5h12V14z"/>
	<path d="M6,13h1h2h1h2h1v-1v-1v-1V9V8V7V6h-1h-2H9H7H6H4H3v1v1v1v1v1v1v1h1H6z M7,12v-1h2v1H7z M7,10V9h2v1H7z
		 M12,12h-2v-1h2V12z M12,10h-2V9h2V10z M12,7v1h-2V7H12z M9,7v1H7V7H9z M4,7h2v1H4V7z M4,9h2v1H4V9z M4,11h2v1H4V11z"/>
</g>
</svg>
